X: 1
T: Reel des Oignons
M: C|
Z: Transcribed to abc by Mary Lou Knack
R: reel
K: G
   z2 \
| "G"gage d2"G#o"Bd | (3"Am"cdc A2 A4 | "D"feee eddd | dccc c2B2 |
| "G"gage d2"G#o"Bd | (3"Am"cdc A2 A4 | "D"D2fe dcBA | "G"G2g2 g2 :|
|: Bc \
| "G"d2g2 g2fg | "Am"a6 (3ABc | "D"d2a2 a2ga | "G"b6 (3Bc^c |
| "G"d2g2 g2fg | "Am"a6 (3ABc | "D"d2a2 a2ba | "G"g6 :|
